X:32
T:kane Farnan . #7.
D:Jahey ((1963)cling ond Afstane's E wh #10487
Z:id:hn-reel-64



*****************************


16100 0 1.4659262 

<star:>
4:GBd2 BdAF|AFDF E2~B2|BFEF Gfdc|deag gBde|dfed BAAF|F~EF EFDA|(3cdc dA/F/A/G/A ::22 (3ED2 FDE2|



*****************************


16200 0 0.93904096 

<starel-24
M:C|
K:G
BBA~B2 (3gaf|afed edef|agaf b2fe||
deAB eBAB|cece fedc|dBAd cAee|f2e2 gedA|1 ~A3dc ~d


*****************************


16300 0 1.3188726 

<star>
HGA|AA EEAD | DA~F2  B2dB AAce|c2GA BA~A2|dece d2zB||
|:eA~B2 (3gecA BGEA||
<end>
<start>
